src/images/icon-hand.svg

<svg fill="none" height="80" viewBox="0 0 80 80" width="80" xmlns="http://www.w3.org/2000/svg"><g fill="#21295e"><path d="m64.7426 49.5454c-.0075-.0075-.0075-.0075 0-.0151.8258-.8561 1.2652-1.9849 1.25-3.1743l-.0075-1.2197c-.0379-2.4924-2.0758-4.4924-4.5379-4.4924l-14.7273.0682c-.0076 0-.0151-.0076-.0151-.0152l-.0228-7.803c-.0075-2.4773-2.0303-4.4924-4.5-4.4924h-.0606l-1.9697.0076c-2.0985.0303-3.7651 1.4621-4.3939 3.7348-.4394 1.6061-1.1515 3.9849-1.9015 6.5-.9925 3.3409-1.7652 5.9697-2.3637 8.0833 0 .0076-.0151.0076-.0227 0-.8182-1.4015-2.3636-2.3484-4.1288-2.3484h-6.0606c-2.6136 0-4.7424 2.0681-4.7424 4.6136v17.9242c0 2.5455 2.1288 4.6137 4.7424 4.6137h6.0606c2.4697 0 4.5076-1.8485 4.7197-4.197 0-.0076.0152-.0151.0227-.0076 1.8258 2.4773 4.5606 4.4167 7.2425 5.2879 1.0303.3333 3.1894.7197 10.7878.7197 3.4319 0 6.4091-.0833 6.7728-.0909 1.1894-.0152 2.3106-.4924 3.1515-1.3485.856-.8712 1.3106-2.0151 1.2954-3.2121l-.0075-.5303c0-.7121-.1819-1.4243-.5228-2.053 0-.0076 0-.0152.0076-.0152 1.0985-.25 2.0833-.9242 2.7576-1.9242.5151-.7728.7348-1.7122.7273-2.644l-.0152-1.1288c-.0151-.8636-.2651-1.6666-.697-2.3485 0-.0075 0-.0151.0076-.0151.8485-.4318 1.5758-1.1364 2.0455-2.0758.3182-.6439.4394-1.3636.4394-2.0757l-.0152-1.1743c-.0151-1.1969-.4848-2.3106-1.3182-3.1515zm-35.6818 17.3712c0 .8712-.7651 1.5834-1.7121 1.5834h-6.0606c-.947 0-1.7121-.7046-1.7121-1.5834v-17.9242c0-.8712.7651-1.5833 1.7121-1.5833h6.0606c.947 0 1.7121.7045 1.7121 1.5833zm32.5152-11.4469-1.3561.0151-.6818.0227-.3409 3.4773.553-.0454c.8182 0 1.5.6742 1.5076 1.4924l.0151 1.2424c.0076.8182-.6591 1.4849-1.4772 1.4849l-2.6212.0303c-.0076 0-.0076.0075-.0152.0075l-.5758 3.5h.2803-.0606l.6743.0076-.6137-.0076c.3713.0228.7122.1743.9849.4319.2879.2727.4394.6515.447 1.0378l.0075.5455c.0076.3939-.1439.7576-.4242 1.0379-.2803.2878-.6515.4469-1.0455.4469 0 0-3.1363.091-6.7197.091-3.9469 0-8.4318-.1061-9.8484-.5682-3.3637-1.0909-7.2425-4.5606-7.2879-8.2652l-.0758-7.4242c-.0227-2.1591 4.2728-15.644 5.7728-21.0834.2121-.7803.6742-1.5 1.4848-1.5075l2.0076-.0076h.0227c.8106 0 1.4697.6591 1.4697 1.4773l.0303 10.8484.9697-.0075 16.7879-.0834c.8106 0 1.5.6743 1.5076 1.4849l.0075 1.25c.0152.8182-.6515 1.4848-1.4697 1.4924l-1.8636.0833c-.0076 0-.0152.0076-.0152.0152l.2122 3.25c0 .0076.0075.0076.0151.0076l1.6894-.0076c.394 0 .7652.1591 1.053.4318.2879.2879.447.6591.4546 1.053l.0151 1.25c.0076.8182-.6591 1.4849-1.4772 1.4925z"/><path d="m50.9326 25.9699 9.8561-9.8637c.4697-.4697.6515-1.2045.3409-1.7954-.5076-.9697-1.7273-1.0985-2.4319-.394l-9.856 9.8561c-.4697.4697-.6515 1.2045-.3409 1.7955.5075.9697 1.7272 1.106 2.4318.4015z"/><path d="m67.6141 32.2046h-13.9394c-.6666 0-1.3106.3939-1.5151 1.0303-.3258 1.0455.447 2 1.4394 2h13.947c.6666 0 1.3106-.3939 1.5151-1.0303.3182-1.0379-.447-2-1.447-2z"/><path d="m41.7197 23.6365c.6364-.197 1.0303-.8409 1.0303-1.5152v-13.8712c0-.66666-.3939-1.3106-1.0303-1.51515-1.0454-.32576-2 .44697-2 1.4394v14.01515c0 1 .9546 1.7727 2 1.447z"/><path d="m31.5301 25.9697c.7045.7046 1.9242.5682 2.4318-.3939.3106-.5909.1288-1.3258-.3409-1.7955l-9.8106-9.8106c-.4697-.4697-1.2046-.6515-1.7955-.3409-.9697.5076-1.0985 1.7273-.3939 2.4318z"/><path d="m30.3033 33.2349c-.197-.6364-.8409-1.0303-1.5152-1.0303h-13.8712c-.6666 0-1.3106.3939-1.5151 1.0303-.3258 1.0455.4469 2 1.4394 2h14.0151c1 0 1.7727-.9545 1.447-2z"/></g></svg>

<svg width="80" height="80" viewBox="0 0 80 80" fill="none" xmlns="http://www.w3.org/2000/svg">
<path d="M64.7426 49.5454C64.7351 49.5379 64.7351 49.5379 64.7426 49.5303C65.5684 48.6742 66.0078 47.5454 65.9926 46.356L65.9851 45.1363C65.9472 42.6439 63.9093 40.6439 61.4472 40.6439L46.7199 40.7121C46.7123 40.7121 46.7048 40.7045 46.7048 40.6969L46.682 32.8939C46.6745 30.4166 44.6517 28.4015 42.182 28.4015H42.1214L40.1517 28.4091C38.0532 28.4394 36.3866 29.8712 35.7578 32.1439C35.3184 33.75 34.6063 36.1288 33.8563 38.6439C32.8638 41.9848 32.0911 44.6136 31.4926 46.7272C31.4926 46.7348 31.4775 46.7348 31.4699 46.7272C30.6517 45.3257 29.1063 44.3788 27.3411 44.3788H21.2805C18.6669 44.3788 16.5381 46.4469 16.5381 48.9924V66.9166C16.5381 69.4621 18.6669 71.5303 21.2805 71.5303H27.3411C29.8108 71.5303 31.8487 69.6818 32.0608 67.3333C32.0608 67.3257 32.076 67.3182 32.0835 67.3257C33.9093 69.803 36.6441 71.7424 39.326 72.6136C40.3563 72.9469 42.5154 73.3333 50.1138 73.3333C53.5457 73.3333 56.5229 73.25 56.8866 73.2424C58.076 73.2272 59.1972 72.75 60.0381 71.8939C60.8941 71.0227 61.3487 69.8788 61.3335 68.6818L61.326 68.1515C61.326 67.4394 61.1441 66.7272 60.8032 66.0985C60.8032 66.0909 60.8032 66.0833 60.8108 66.0833C61.9093 65.8333 62.8941 65.1591 63.5684 64.1591C64.0835 63.3863 64.3032 62.4469 64.2957 61.5151L64.2805 60.3863C64.2654 59.5227 64.0154 58.7197 63.5835 58.0378C63.5835 58.0303 63.5835 58.0227 63.5911 58.0227C64.4396 57.5909 65.1669 56.8863 65.6366 55.9469C65.9548 55.303 66.076 54.5833 66.076 53.8712L66.0608 52.6969C66.0457 51.5 65.576 50.3863 64.7426 49.5454ZM29.0608 66.9166C29.0608 67.7878 28.2957 68.5 27.3487 68.5H21.2881C20.3411 68.5 19.576 67.7954 19.576 66.9166V48.9924C19.576 48.1212 20.3411 47.4091 21.2881 47.4091H27.3487C28.2957 47.4091 29.0608 48.1136 29.0608 48.9924V66.9166ZM61.576 55.4697L60.2199 55.4848L59.5381 55.5075L59.1972 58.9848L59.7502 58.9394C60.5684 58.9394 61.2502 59.6136 61.2578 60.4318L61.2729 61.6742C61.2805 62.4924 60.6138 63.1591 59.7957 63.1591L57.1745 63.1894C57.1669 63.1894 57.1669 63.1969 57.1593 63.1969L56.5835 66.6969H56.8638H56.8032L57.4775 66.7045L56.8638 66.6969C57.2351 66.7197 57.576 66.8712 57.8487 67.1288C58.1366 67.4015 58.2881 67.7803 58.2957 68.1666L58.3032 68.7121C58.3108 69.106 58.1593 69.4697 57.879 69.75C57.5987 70.0378 57.2275 70.1969 56.8335 70.1969C56.8335 70.1969 53.6972 70.2879 50.1138 70.2879C46.1669 70.2879 41.682 70.1818 40.2654 69.7197C36.9017 68.6288 33.0229 65.1591 32.9775 61.4545L32.9017 54.0303C32.879 51.8712 37.1745 38.3863 38.6745 32.9469C38.8866 32.1666 39.3487 31.4469 40.1593 31.4394L42.1669 31.4318H42.1896C43.0002 31.4318 43.6593 32.0909 43.6593 32.9091L43.6896 43.7575L44.6593 43.75L61.4472 43.6666C62.2578 43.6666 62.9472 44.3409 62.9548 45.1515L62.9623 46.4015C62.9775 47.2197 62.3108 47.8863 61.4926 47.8939L59.629 47.9772C59.6214 47.9772 59.6138 47.9848 59.6138 47.9924L59.826 51.2424C59.826 51.25 59.8335 51.25 59.8411 51.25L61.5305 51.2424C61.9245 51.2424 62.2957 51.4015 62.5835 51.6742C62.8714 51.9621 63.0305 52.3333 63.0381 52.7272L63.0532 53.9772C63.0608 54.7954 62.3941 55.4621 61.576 55.4697Z" fill="#21295E"/>
<path d="M50.9326 25.9699L60.7887 16.1062C61.2584 15.6365 61.4402 14.9017 61.1296 14.3108C60.622 13.3411 59.4023 13.2123 58.6977 13.9168L48.8417 23.7729C48.372 24.2426 48.1902 24.9774 48.5008 25.5684C49.0083 26.5381 50.228 26.6744 50.9326 25.9699Z" fill="#21295E"/>
<path d="M67.6141 32.2046H53.6747C53.0081 32.2046 52.3641 32.5985 52.1596 33.2349C51.8338 34.2804 52.6066 35.2349 53.599 35.2349H67.546C68.2126 35.2349 68.8566 34.841 69.0611 34.2046C69.3793 33.1667 68.6141 32.2046 67.6141 32.2046Z" fill="#21295E"/>
<path d="M41.7197 23.6365C42.3561 23.4395 42.75 22.7956 42.75 22.1213V8.2501C42.75 7.58344 42.3561 6.9395 41.7197 6.73495C40.6743 6.40919 39.7197 7.18192 39.7197 8.17435V22.1895C39.7197 23.1895 40.6743 23.9622 41.7197 23.6365Z" fill="#21295E"/>
<path d="M31.5301 25.9697C32.2346 26.6743 33.4543 26.5379 33.9619 25.5758C34.2725 24.9849 34.0907 24.25 33.621 23.7803L23.8104 13.9697C23.3407 13.5 22.6058 13.3182 22.0149 13.6288C21.0452 14.1364 20.9164 15.3561 21.621 16.0606L31.5301 25.9697Z" fill="#21295E"/>
<path d="M30.3033 33.2349C30.1063 32.5985 29.4624 32.2046 28.7881 32.2046H14.9169C14.2503 32.2046 13.6063 32.5985 13.4018 33.2349C13.076 34.2804 13.8487 35.2349 14.8412 35.2349H28.8563C29.8563 35.2349 30.629 34.2804 30.3033 33.2349Z" fill="#21295E"/>
</svg>
